packages/sights/assets/overlays/xfbBpq3Q.svg

<svg width="500" height="375" viewBox="0 0 500 375" fill="none" xmlns="http://www.w3.org/2000/svg">
<path d="M269.14 5.16992C269.14 5.16992 214.87 38.7499 212.27 41.9999C212.27 41.9999 52.3802 56.8299 36.2702 83.4299C36.2702 83.4299 29.4002 95.8099 28.4802 120.58L18.0002 131.08L10.6602 160.43C10.6602 160.43 18.9202 217.76 21.2102 225.55C21.2102 225.55 63.8602 287.92 124.4 317.27C124.4 317.27 305.54 350.27 340.4 331.95L350.48 323.69C350.48 323.69 412.4 100.82 459.63 131.54C459.63 131.54 476.14 152.64 459.63 201.71L456.39 210.47" stroke="white" stroke-miterlimit="10"/>
<path d="M420.73 151.2L446.92 157.2C460.29 166.74 462.08 216.76 442.48 272.78C421.89 331.66 392.25 374.87 376.29 369.29C375.93 369.16 375.59 369.01 375.29 368.85L318.84 336.85" stroke="white" stroke-miterlimit="10"/>
<path d="M453.77 229.93L493.7 198.19" stroke="white" stroke-miterlimit="10"/>
<path d="M32.5001 93.6C32.5001 93.6 113.22 104.6 152.35 102.8C152.35 102.8 344.04 83.17 380.43 93.6L382.26 96.78C382.26 96.78 359.94 134.6 353.83 138.57C353.83 138.57 284.12 155.08 184.76 160.57L131.25 183.5C131.25 183.5 38.3101 167 23.3301 142.55C23.4679 134.929 25.2413 127.426 28.5301 120.55" stroke="white" stroke-miterlimit="10"/>
<path d="M150.189 102.89V113.81L184.759 160.59" stroke="white" stroke-miterlimit="10"/>
<path d="M179.871 220.82L217.471 207.06C217.471 207.06 296.661 204.31 305.831 210.73C305.831 210.73 304.301 255.06 298.491 263.01L292.381 265.76C292.381 265.76 226.641 266.68 215.381 263.31C215.381 263.31 185.381 253.83 181.441 246.19C179.389 237.898 178.857 229.302 179.871 220.82Z" stroke="white" stroke-miterlimit="10"/>
<path d="M17.5195 165.78L19.6595 193.6L74.6895 230.9V198.34L17.5195 165.78Z" stroke="white" stroke-miterlimit="10"/>
<path d="M212.27 42.0002C212.27 42.0002 421.7 16.5902 452.27 23.0002C452.27 23.0002 455.33 7.81016 458.69 5.16016" stroke="white" stroke-miterlimit="10"/>
</svg>

<svg width="500" height="375" fill="none" xmlns="http://www.w3.org/2000/svg"><path d="M269.14 5.17S214.87 38.75 212.27 42c0 0-159.89 14.83-176 41.43 0 0-6.87 12.38-7.79 37.15L18 131.08l-7.34 29.35s8.26 57.33 10.55 65.12c0 0 42.65 62.37 103.19 91.72 0 0 181.14 33 216 14.68l10.08-8.26s61.92-222.87 109.15-192.15c0 0 16.51 21.1 0 70.17l-3.24 8.76" stroke="#fff" stroke-miterlimit="10"/><path d="m420.73 151.2 26.19 6c13.37 9.54 15.16 59.56-4.44 115.58-20.59 58.88-50.23 102.09-66.19 96.51-.36-.13-.7-.28-1-.44l-56.45-32M453.77 229.93l39.93-31.74M32.5 93.6s80.72 11 119.85 9.2c0 0 191.69-19.63 228.08-9.2l1.83 3.18s-22.32 37.82-28.43 41.79c0 0-69.71 16.51-169.07 22l-53.51 22.93S38.31 167 23.33 142.55a53.218 53.218 0 0 1 5.2-22" stroke="#fff" stroke-miterlimit="10"/><path d="M150.189 102.89v10.92l34.57 46.78M179.871 220.82l37.6-13.76s79.19-2.75 88.36 3.67c0 0-1.53 44.33-7.34 52.28l-6.11 2.75s-65.74.92-77-2.45c0 0-30-9.48-33.94-17.12a70.685 70.685 0 0 1-1.57-25.37ZM17.52 165.78l2.14 27.82 55.03 37.3v-32.56l-57.17-32.56ZM212.27 42s209.43-25.41 240-19c0 0 3.06-15.19 6.42-17.84" stroke="#fff" stroke-miterlimit="10"/></svg>
